src/svg/poof.svg

<?xml version="1.0" encoding="UTF-8" standalone="no"?>
<svg width="35px" height="35px" viewBox="0 0 35 35" version="1.1" xmlns="http://www.w3.org/2000/svg" xmlns:xlink="http://www.w3.org/1999/xlink">
    <defs>
        <linearGradient x1="50%" y1="0%" x2="50%" y2="100%" id="linearGradient-poof">
            <stop stop-color="#F0F0F0" offset="0%"></stop>
            <stop stop-color="#D5D5D5" offset="100%"></stop>
        </linearGradient>
    </defs>
    <g id="Page-1" stroke="none" stroke-width="1" fill="none" fill-rule="evenodd">
        <g id="poof">
            <g id="bg-copy" fill="#FFFFFF" opacity="0.00999999978">
                <rect id="bg" x="0" y="0" width="35" height="35"></rect>
            </g>
            <path d="M9,24 C9,28.97 13.03,33 18,33 L18,33 C22.97,33 27,28.97 27,24 L27,24 C27,19.029 22.97,15 18,15 L18,15 C13.03,15 9,19.029 9,24" id="poof-circle" fill="url(#linearGradient-poof)"></path>
            <path d="M8,17.4219 L8,1.4069 L19.591,13.0259 L12.55,13.0259 L12.399,13.1499 L8,17.4219 Z" id="point-border" fill="#FFFFFF"></path>
            <path d="M19.4142,24 L21.5352,21.879 C21.9262,21.488 21.9262,20.855 21.5352,20.464 C21.1452,20.074 20.5122,20.074 20.1212,20.464 L18.0002,22.586 L15.8782,20.464 C15.4882,20.074 14.8552,20.074 14.4642,20.464 C14.0742,20.855 14.0742,21.488 14.4642,21.879 L16.5862,24 L14.4642,26.121 C14.0742,26.512 14.0742,27.145 14.4642,27.536 C14.8552,27.926 15.4882,27.926 15.8782,27.536 L18.0002,25.414 L20.1212,27.536 C20.5122,27.926 21.1452,27.926 21.5352,27.536 C21.9262,27.145 21.9262,26.512 21.5352,26.121 L19.4142,24 Z" id="cross" fill="#5A5A5A"></path>
            <path d="M9,3.814 L9,15.002 L11.969,12.136 L12.129,11.997 L17.165,11.997 L9,3.814 Z" id="point" fill="#000000"></path>
        </g>
    </g>
</svg>

<svg height="35" viewBox="0 0 35 35" width="35" xmlns="http://www.w3.org/2000/svg" xmlns:xlink="http://www.w3.org/1999/xlink"><linearGradient id="a" x1="50%" x2="50%" y1="0%" y2="100%"><stop offset="0" stop-color="#f0f0f0"/><stop offset="1" stop-color="#d5d5d5"/></linearGradient><g fill="none" fill-rule="evenodd"><path d="m9 24c0 4.97 4.03 9 9 9 4.97 0 9-4.03 9-9 0-4.971-4.03-9-9-9-4.97 0-9 4.029-9 9" fill="url(#a)"/><path d="m8 17.4219v-16.015l11.591 11.619h-7.041l-.151.124z" fill="#fff"/><path d="m19.4142 24 2.121-2.121c.391-.391.391-1.024 0-1.415-.39-.39-1.023-.39-1.414 0l-2.121 2.122-2.122-2.122c-.39-.39-1.023-.39-1.414 0-.39.391-.39 1.024 0 1.415l2.122 2.121-2.122 2.121c-.39.391-.39 1.024 0 1.415.391.39 1.024.39 1.414 0l2.122-2.122 2.121 2.122c.391.39 1.024.39 1.414 0 .391-.391.391-1.024 0-1.415z" fill="#5a5a5a"/><path d="m9 3.814v11.188l2.969-2.866.16-.139h5.036z" fill="#000"/></g></svg>
